X:1
T:Irish Washerwoman
C: Arr. Fiddlehed
M:6/8
L:1/8
R:jig
K:G
|: "G"BGG DGG| BGG dcB|"D"cAA DAA| cAc edc|
"G"BGG DGG| BGG dcB |"D"cBc Adc [1|"G"BGG Gdc :| [2| BGG Gga ||
|: "G"bgg dgg | bgb bag |"D" aff dff | afa agf | "C"egg "G"dgg |
"C"cgg "G"Bgg | "D"cBc Adc [1| "G"BGG Gga :|[2 "G"BGG Gzz: |]
